X:1
T:Abendlied
T:Str. 1 von Goethe, 1780 Str. 2 u. 3 von Johannes Falk 1817
T:Friedrich Kuhlau
T:Abendlied
T:CPDL - Creative Commons Attribution Non Commercial 3.0
C:Friedrich Kuhlau
Z:Goethe, Johannes Falk
Z:CPDL - Creative Commons Attribution Non Commercial 3.0
%%score [ ( 1 2 ) ( 3 4 ) ]
L:1/8
Q:1/4=66
M:4/4
K:Db
V:1 treble-8 nm="Tenor"
V:2 treble-8 
V:3 bass nm="Bass"
V:4 bass 
V:1
"^Langsam und getragen"!p! d3 d g2 f2 |!>(! e4!>)! e3 f | d6!<(! d2 | e2!<)! d2 g2 f2 |!p! e6 e2 | %5
w: |||||
w: |||||
w: |||||
 e2!>(! a4!>)! f2 | e6 e2 | _f3 e f2 ed | d2 c2 z4 |!<(! A>A c2 c>c!<)! e2 |!>(! g6!>)! fe | %11
w: ||||||
w: ||||||
w: ||||||
!p! d3 d d2 e2 | f8 |!<(! A>A d2 d>d!<)! f2 |!>(! a6!>)! gf |!p! e3 =e f2 _e2 | d6 A>A | %17
w: |||||* bal- de|
w: ||||||
w: ||||||
!pp![Q:1/4=60]"^rit." A6 c2 | !fermata!d8 |] %19
w: ruhst du|auch!|
w: welkst auch|du!|
w: spielst auch|du!|
V:2
 d3 d d2 d2 | d4 c2 c2 | A6 A2 | A2 A2 c2 d2 | d6 d2 | c2 d4 d2 | c6 c2 | B2 B2 B2 BB | A2 A2 x4 | %9
w: Ü- ber al- len|Gip- feln ist|Ruh, in|al- len Wip- feln|spü- rest|du kei- nen|Hauch; die|Vög- lein schwei- gen im|Wal- de.|
w: Un- ter al- len|Mon- den ist|Plag', und|al- le Jahr' und|al- le|Tag' Jam- mer-|laut; das|Laub ver- welkt in dem|Wal- de.|
w: Un- ter al- len|Ster- nen ist|Ruh, in|al- len Him- meln|hö- rest|du Har- fen-|laut, die|Eng- lein spie- len, das|schall- te!|
 E>E A2 A>A c2 | e6 c2 | A3 A A2 c2 | d8 | F>F A2 A>A d2 | f6 ed | d3 d d2 c2 | A6 A>A | A6 A2 | %18
w: War- te nur, war- te nur,|bal- de,|bal- de ruhst du|auch!|War- te nur, war- te nur,|bal- de, *|bal- de ruhst du|auch, * *||
w: ||* * welkst auch|du!|||* * welkst auch|du, * *||
w: ||* * spielst auch|du,|||* * spielst auch|du, * *||
 A8 |] %19
w: |
w: |
w: |
V:3
!p! F,3 F, B,2 A,2 |!>(! G,4!>)! G,2 G,2 | F,6!<(! F,2 | G,2!<)! F,2 A,2 A,2 |!p! B,6 B,2 | %5
w: |||||
w: |||||
w: |||||
 A,2!>(! A,4!>)! A,2 | A,6 A,,2 | D,2 D,2 D,2 E,_F, | E,2 E,2 z4 |!<(! C,>C, E,2 E,>E,!<)! A,2 | %10
w: |||||
w: |||||
w: |||||
!>(! C6!>)! A,2 |!p! A,3 F, A,2 A,2 | A,8 |!<(! D,>D, F,2 F,>F,!<)! A,2 |!>(! D6!>)! A,2 | %15
w: |||||
w: |||||
w: |||||
!p! B,3 B, A,2 _G,2 | F,6 z2 |!pp! F,3 F, A,2 G,2 | !fermata!F,8 |] %19
w: ||* * ruhst du|auch!|
w: ||bal- de welkst auch|du!|
w: ||* * spielst auch|du!|
V:4
 D,3 D, G,,2 A,,2 | B,,4 A,,2 A,,2 | D,6 D,2 | C,2 D,2 E,2 F,2 | G,6 G,2 | G,2 F,4 D,2 | %6
 A,,6 A,,2 | =G,,2 G,,2 G,,2 G,,G,, | A,,2 A,,2 x4 | A,,>A,, A,,2 A,,>A,, A,,2 | A,6 G,2 | %11
 F,3 D, F,2 A,2 | D,8 | D,>D, D,2 D,>D, D,2 | D,6 E,F, | G,3 =G, A,2 A,,2 | D,6 x2 | %17
 A,,3 A,, F,2 E,2 | D,8 |] %19

